X:1
T:Title
%%score 1 { ( 2 3 ) | ( 4 5 ) }
L:1/8
Q:1/4=100
M:4/4
K:G
V:1 treble nm="Akkordion"
V:2 bass nm="Grand Piano"
V:3 bass 
V:4 bass 
V:5 bass 
V:1
 B2 A>G c2 B>A | d3 c B2 B>B | A2 E2 d2 c2 | B6 (3Bcd | e2 e>d c2 BA | d3 c B2 (3cBA | %6
w: Chas.~Edw.~Prior * * * * *||||||
 G>D G>B d2 c2 |[M:9/8] B2- B/c/- c/d/ c2- ce>e |[M:4/4] d2 B>c B2 A2 | G6 z2 | z8 | z8 | z8 | z8 | %14
w: ||||||||
 z8 | z8 | z8 | z8 |] %18
w: ||||
V:2
 z[K:treble] GGG[K:bass] z[K:treble] FFF | z G z F z[K:treble] GGG | z EEE z[K:treble] FFF | %3
 z [DG][B,G][B,DG] [B,DG]2 (3B,CD | z EEE z EEE | z G z F G,,GC,[K:treble]A | z GGG z FFF | %7
[M:9/8] z GG G [EG]2- [EG][Gceg]>[Gceg] |[M:4/4] [GBdg]2 [DBd]>[Ece] [DBd]2 [CAc]2 | [B,GB]6 z2 | %10
 D2 G>B d2 B>B | z2 c2 z4 | e2 e2 d2 cB | [FA]6 B>A | G2 d>c B2 e>d | c3 B A2 .[CEB]2 | %16
 [Gd]2 [DGB]>[EGc] [DFB]2 [CDA]2 | [B,DG]6 z2 |] %18
V:3
 G,,2[K:treble] z2[K:bass] A,,2[K:treble] z2 | B,,2 A,,2 G,,2[K:treble] z2 | %2
 C,2 z2 D,2[K:treble] z2 | G,2 z2 z4 | C,2 z2 C,2 z2 | B,,2 A,,2 z4[K:treble] | D,2 z2 D,2 z2 | %7
[M:9/8] .G,3 z3 z3 |[M:4/4] x8 | x8 | x8 | d2 z z/ F/ B2 B>B | x8 | x8 | x8 | x8 | x8 | x8 |] %18
V:4
 z [B,D][B,D][B,D] z [A,CD][A,C][A,CD] | z [B,D] z [A,CD] z [B,D][B,D][B,D] | %2
 z [A,C][A,C][A,C] z [A,CD][A,CD][A,CD] | z B,D,B,, G,,2 (3G,A,B, | %4
 z [G,C][G,C][G,C] z [G,C][G,C][G,C] | z [B,D] z [A,CD] G,,,[B,D]C,,[CE] | %6
 z [B,D][B,D][B,D] z [A,CD][A,CD][A,CD] |[M:9/8] z [B,D][B,D] [B,D] [C,C]2- [C,C][C,,C,]>[C,,C,] | %8
[M:4/4] [D,,D,]2 [D,,D,]2 [D,,D,]2 [D,,D,]2 | [G,,D,]6 z2 | z4[K:treble] B2 G>G | %11
 [B,G]2 [A,F]>A, [G,DG]2 [G,DG]>[G,DG] | [CG]2 [CG]2 [B,DG]2 D-[G,DG] | [D,D]6 [D,F,D]>[D,F,C] | %14
 [E,G,B,]2 [F,A,D]>[F,A,D][K:treble] [G,B,D]2 [^G,B,E]>[G,B,E] | [A,CE]3 [B,DE] [CE]2[K:bass] z A | %16
 [D,B,]2 D,>D, D,2 D,2 | G,6 z2 |] %18
V:5
 G,,,2 z2 A,,,2 z2 | B,,,2 A,,,2 G,,,2 z2 | C,,2 z2 D,,2 z2 | G,,2 z2 z4 | C,,2 z2 C,,2 z2 | %5
 B,,,2 A,,,2 z4 | D,,2 z2 D,,2 z2 |[M:9/8] .G,,3 z3 z3 |[M:4/4] x8 | x8 | x4[K:treble] x4 | x8 | %12
 z4 z2 .[A,F]2 | x8 | x4[K:treble] x4 | z4 z2[K:bass] C,2 | x8 | x8 |] %18

